X:530
T: Tumble the Tailor
T: Leag an T\'ailli\'uir
S: B.Breathnach:"Ceol Rince na hEireann" IV/13
Z: B.Black
L: 1/8
M: 6/8
R: jig
K: G
gBB BAG|Eee Fff|gBB BAG|eag fed|
gBB BAG|Eee Fff|gbb bag|fef g2 z :|
GBd gfg|edc BcA|GBd gfg|eaf gga|
bgb afd|geg fdB|cde ABc|1 EAG FED :|2\
EAF G3 ||
